static/assets/img/icons/theme/weather/rain-2.svg

<svg height="24" viewBox="0 0 24 24" width="24" xmlns="http://www.w3.org/2000/svg"><g fill="none" fill-rule="evenodd"><path d="m0 0h24v24h-24z" opacity="0"/><g fill="#000"><path d="m5.74714567 14.0425758c-1.65304205-1.0685402-2.74714567-2.9277872-2.74714567-5.0425758 0-3.3137085 2.6862915-6 6-6 2.7957591 0 5.1449096 1.91215918 5.8109738 4.5h2.4390262c2.0710678 0 3.75 1.67893219 3.75 3.75 0 2.0710678-1.6789322 3.75-3.75 3.75h-9c-.96182105 0-1.83906822-.3621038-2.50285433-.9574242z"/><path d="m6.5 21c-.82842712 0-1.5-.6715729-1.5-1.5 0-.5522847.5-1.3856181 1.5-2.5 1 1.1143819 1.5 1.9477153 1.5 2.5 0 .8284271-.67157288 1.5-1.5 1.5zm5 0c-.8284271 0-1.5-.6715729-1.5-1.5 0-.5522847.5-1.3856181 1.5-2.5 1 1.1143819 1.5 1.9477153 1.5 2.5 0 .8284271-.6715729 1.5-1.5 1.5zm5 0c-.8284271 0-1.5-.6715729-1.5-1.5 0-.5522847.5-1.3856181 1.5-2.5 1 1.1143819 1.5 1.9477153 1.5 2.5 0 .8284271-.6715729 1.5-1.5 1.5z" opacity=".3"/></g></g></svg>

<svg width="24px" height="24px" viewBox="0 0 24 24" version="1.1" xmlns="http://www.w3.org/2000/svg" xmlns:xlink="http://www.w3.org/1999/xlink">
    <title>Icon For Rain#2</title>
    <g stroke="none" stroke-width="1" fill="none" fill-rule="evenodd">
        <polygon points="0 0 24 0 24 24 0 24" opacity="0"></polygon>
        <path d="M5.74714567,14.0425758 C4.09410362,12.9740356 3,11.1147886 3,9 C3,5.6862915 5.6862915,3 9,3 C11.7957591,3 14.1449096,4.91215918 14.8109738,7.5 L17.25,7.5 C19.3210678,7.5 21,9.17893219 21,11.25 C21,13.3210678 19.3210678,15 17.25,15 L8.25,15 C7.28817895,15 6.41093178,14.6378962 5.74714567,14.0425758 Z" fill="#000000"></path>
        <path d="M6.5,21 C5.67157288,21 5,20.3284271 5,19.5 C5,18.9477153 5.5,18.1143819 6.5,17 C7.5,18.1143819 8,18.9477153 8,19.5 C8,20.3284271 7.32842712,21 6.5,21 Z M11.5,21 C10.6715729,21 10,20.3284271 10,19.5 C10,18.9477153 10.5,18.1143819 11.5,17 C12.5,18.1143819 13,18.9477153 13,19.5 C13,20.3284271 12.3284271,21 11.5,21 Z M16.5,21 C15.6715729,21 15,20.3284271 15,19.5 C15,18.9477153 15.5,18.1143819 16.5,17 C17.5,18.1143819 18,18.9477153 18,19.5 C18,20.3284271 17.3284271,21 16.5,21 Z" fill="#000000" opacity="0.3"></path>
    </g>
</svg>
